X: 29560
T: Noisy Curlew, The
R: reel
M: 4/4
K: Dmajor
|:DF F2 DG G2|DF F2 E2 FE|DF F2 ABde|fdAG FDDA|
DF F2 DG G2|DF F2 E2 FE|DF F2 ABde|fdAG FDDA:|
|:fgaf g2 ag|fgaf gfeg|fgaf g2 ag|fdAG FDDA|
fgaf g2 ag|fgaf gfeg|fdAF G2 ag|fdAG FDDA:|

